Newaita-dark/apps/64/haguichi.svg

<svg height="64" viewBox="0 0 64 64" width="64" xmlns="http://www.w3.org/2000/svg" xmlns:xlink="http://www.w3.org/1999/xlink"><linearGradient id="a" gradientUnits="userSpaceOnUse" x1="31.75304" x2="31.75304" y1="56.067872" y2="58.71396000006"><stop offset="0" stop-opacity=".27451"/><stop offset="1" stop-opacity="0"/></linearGradient><linearGradient id="b"><stop offset="0" stop-opacity=".313726"/><stop offset=".222222" stop-opacity=".27451"/><stop offset="1" stop-opacity="0"/></linearGradient><radialGradient id="c" cx="450.908936" cy="189.579361" gradientTransform="matrix(.00000035 -.156265 -.281277 -.0000002 104.261296 127.190665)" gradientUnits="userSpaceOnUse" r="21.166656" xlink:href="#b"/><radialGradient id="d" cx="450.908936" cy="189.579361" gradientTransform="matrix(-.00000035 .156265 .281277 .0000002 -40.755227 -15.054958)" gradientUnits="userSpaceOnUse" r="21.166656" xlink:href="#b"/><radialGradient id="e" cx="450.908936" cy="189.579361" gradientTransform="matrix(-.00000035 -.156265 .281277 -.0000002 -40.755227 127.190665)" gradientUnits="userSpaceOnUse" r="21.166656" xlink:href="#b"/><radialGradient id="f" cx="450.908936" cy="189.579361" gradientTransform="matrix(.00000035 .156265 -.281277 .0000002 104.261293 -15.054959)" gradientUnits="userSpaceOnUse" r="21.166656" xlink:href="#b"/><linearGradient id="g" gradientUnits="userSpaceOnUse" x1="21.16869799994" x2="21.16869799994" y1="56.067868" y2="5.79221000013"><stop offset="0" stop-color="#f44336"/><stop offset="1" stop-color="#ef5350"/></linearGradient><linearGradient id="h" gradientUnits="userSpaceOnUse" x1="31.753048" x2="31.753048" y1="56.067868" y2="5.79221000013"><stop offset="0" stop-color="#bdbdbd"/><stop offset="1" stop-color="#e0e0e0"/></linearGradient><path d="m11.90625 55.871094h39.691406v2.941406h-39.691406zm0 0" fill="url(#a)"/><path d="m51.597656 56.066406h5.292969v-2.644531h-5.292969zm0 0" fill="url(#c)"/><path d="m11.90625 56.066406h-5.292969v2.648438h5.292969zm0 0" fill="url(#d)"/><path d="m11.90625 56.066406h-5.292969v-2.644531h5.292969zm0 0" fill="url(#e)"/><path d="m51.597656 56.066406h5.292969v2.648438h-5.292969zm0 0" fill="url(#f)"/><path d="m9.261719 5.792969h44.984375c1.460937 0 2.644531 1.183593 2.644531 2.644531v44.984375c0 1.460937-1.183594 2.644531-2.644531 2.644531h-44.984375c-1.460938 0-2.648438-1.183594-2.648438-2.644531v-44.984375c0-1.460938 1.1875-2.644531 2.648438-2.644531zm0 0" fill="url(#g)"/><path d="m9.261719 5.792969c-1.464844 0-2.648438 1.179687-2.648438 2.644531v.332031c0-1.464843 1.183594-2.648437 2.648438-2.648437h44.984375c1.464844 0 2.644531 1.183594 2.644531 2.648437v-.332031c0-1.464844-1.179687-2.644531-2.644531-2.644531zm0 0" fill="#e6e6e6" fill-opacity=".392157"/><path d="m9.261719 56.066406c-1.464844 0-2.648438-1.179687-2.648438-2.644531v-.332031c0 1.46875 1.183594 2.648437 2.648438 2.648437h44.984375c1.464844 0 2.644531-1.179687 2.644531-2.648437v.332031c0 1.464844-1.179687 2.644531-2.644531 2.644531zm0 0" fill-opacity=".196078"/><path d="m74.086675-168.660675h359.840637c11.686384 0 21.15423 9.467846 21.15423 21.15423v359.840637c0 11.686384-9.467846 21.154229-21.15423 21.154229h-359.840637c-11.686384 0-21.185477-9.467845-21.185477-21.154229v-359.840637c0-11.686384 9.499093-21.15423 21.185477-21.15423zm0 0" fill="none" stroke="#212121" stroke-linecap="round" stroke-width="3" transform="matrix(.125012 0 0 .125012 0 26.877566)"/><path d="m31.753906 13.734375c-.394531 0-.765625.171875-1.015625.472656l-13.230469 15.878907c-.410156.488281-.410156 1.199218 0 1.691406l13.230469 15.875c.25.300781.621094.476562 1.015625.476562h7.9375c1.121094 0 1.730469-1.308594 1.015625-2.167968l-11.144531-13.371094-6.078125 3.964844 4.714844-5.601563-.019531-.023437 12.527343-15.03125c.714844-.859376.105469-2.164063-1.015625-2.164063zm0 0" fill="url(#h)"/><path d="m31.753906 13.734375c-.394531 0-.765625.171875-1.015625.472656l-13.230469 15.878907c-.261718.3125-.355468.714843-.28125 1.089843.039063-.214843.132813-.417969.28125-.597656l13.230469-15.875c.25-.300781.621094-.476563 1.015625-.476563h7.9375c.691406 0 1.1875.496094 1.300782 1.082032.148437-.765625-.417969-1.574219-1.300782-1.574219zm-2.191406 18.855469-5.15625 3.359375-.921875 1.097656 6.078125-3.964844 11.144531 13.371094c.152344.183594.242188.386719.285157.59375.066406-.363281-.011719-.757813-.285157-1.085937zm0 0" fill="#fff"/><path d="m40.96875 15.5625c-.050781.171875-.136719.339844-.261719.492188l-12.527343 15.03125.019531.023437-4.714844 5.597656 1.296875-.847656 3.417969-4.054687-.019531-.023438 12.527343-15.03125c.300781-.363281.367188-.800781.261719-1.1875zm-23.71875 15.871094c-.113281.40625-.027344.851562.257812 1.191406l13.230469 15.878906c.25.300782.621094.472656 1.015625.472656h7.9375c.921875 0 1.496094-.882812 1.273438-1.675781-.144532.539063-.625.980469-1.273438.980469h-7.9375c-.394531 0-.765625-.171875-1.015625-.472656l-13.230469-15.878906c-.125-.148438-.210937-.320313-.257812-.496094zm0 0" fill-opacity=".235294"/><path d="m960.026483 415.235959c-11.927996 0-23.147397 5.196355-30.705731 14.289975l-400.001193 480.072291c-12.400391 14.76237-12.400391 36.256382 0 51.136852l400.001193 479.954191c7.558334 9.093621 18.777735 14.408074 30.705731 14.408074h239.977096c33.894403 0 52.317841-39.563153 30.70573-65.544925l-336.936345-404.252756-183.761989 119.870449 142.54545-169.353915-.590495-.708594 378.743379-454.444815c21.612111-25.981773 3.188673-65.426827-30.70573-65.426827zm0 0" fill="none" stroke="#212121" stroke-linecap="round" stroke-linejoin="round" stroke-width="11.338583" transform="scale(.0330761)"/></svg>

<?xml version="1.0" encoding="UTF-8"?>
<svg xmlns="http://www.w3.org/2000/svg" xmlns:xlink="http://www.w3.org/1999/xlink" width="64px" height="64px" viewBox="0 0 64 64" version="1.1">
<defs>
<linearGradient id="linear0" gradientUnits="userSpaceOnUse" x1="254" y1="233.5" x2="254" y2="254.666672" gradientTransform="matrix(0.125012,0,0,0.125012,-0.00000763012,26.87757)">
<stop offset="0" style="stop-color:rgb(0%,0%,0%);stop-opacity:0.27451;"/>
<stop offset="1" style="stop-color:rgb(0%,0%,0%);stop-opacity:0;"/>
</linearGradient>
<radialGradient id="radial0" gradientUnits="userSpaceOnUse" cx="450.908936" cy="189.579361" fx="450.908936" fy="189.579361" r="21.166656" gradientTransform="matrix(0.000000348341,-0.156265,-0.281277,-0.000000203077,104.261296,127.190665)">
<stop offset="0" style="stop-color:rgb(0%,0%,0%);stop-opacity:0.313726;"/>
<stop offset="0.222222" style="stop-color:rgb(0%,0%,0%);stop-opacity:0.27451;"/>
<stop offset="1" style="stop-color:rgb(0%,0%,0%);stop-opacity:0;"/>
</radialGradient>
<radialGradient id="radial1" gradientUnits="userSpaceOnUse" cx="450.908936" cy="189.579361" fx="450.908936" fy="189.579361" r="21.166656" gradientTransform="matrix(-0.000000348341,0.156265,0.281277,0.000000203077,-40.755227,-15.054958)">
<stop offset="0" style="stop-color:rgb(0%,0%,0%);stop-opacity:0.313726;"/>
<stop offset="0.222222" style="stop-color:rgb(0%,0%,0%);stop-opacity:0.27451;"/>
<stop offset="1" style="stop-color:rgb(0%,0%,0%);stop-opacity:0;"/>
</radialGradient>
<radialGradient id="radial2" gradientUnits="userSpaceOnUse" cx="450.908936" cy="189.579361" fx="450.908936" fy="189.579361" r="21.166656" gradientTransform="matrix(-0.000000348341,-0.156265,0.281277,-0.000000203077,-40.755227,127.190665)">
<stop offset="0" style="stop-color:rgb(0%,0%,0%);stop-opacity:0.313726;"/>
<stop offset="0.222222" style="stop-color:rgb(0%,0%,0%);stop-opacity:0.27451;"/>
<stop offset="1" style="stop-color:rgb(0%,0%,0%);stop-opacity:0;"/>
</radialGradient>
<radialGradient id="radial3" gradientUnits="userSpaceOnUse" cx="450.908936" cy="189.579361" fx="450.908936" fy="189.579361" r="21.166656" gradientTransform="matrix(0.000000348341,0.156265,-0.281277,0.000000203077,104.261293,-15.054959)">
<stop offset="0" style="stop-color:rgb(0%,0%,0%);stop-opacity:0.313726;"/>
<stop offset="0.222222" style="stop-color:rgb(0%,0%,0%);stop-opacity:0.27451;"/>
<stop offset="1" style="stop-color:rgb(0%,0%,0%);stop-opacity:0;"/>
</radialGradient>
<linearGradient id="linear1" gradientUnits="userSpaceOnUse" x1="169.333328" y1="233.5" x2="169.333328" y2="-168.666656" gradientTransform="matrix(0.125012,0,0,0.125012,0,26.877566)">
<stop offset="0" style="stop-color:rgb(95.686275%,26.274511%,21.176471%);stop-opacity:1;"/>
<stop offset="1" style="stop-color:rgb(93.725491%,32.549021%,31.37255%);stop-opacity:1;"/>
</linearGradient>
<linearGradient id="linear2" gradientUnits="userSpaceOnUse" x1="254" y1="233.5" x2="254" y2="-168.666656" gradientTransform="matrix(0.125012,0,0,0.125012,0,26.877566)">
<stop offset="0" style="stop-color:rgb(74.117649%,74.117649%,74.117649%);stop-opacity:1;"/>
<stop offset="1" style="stop-color:rgb(87.843138%,87.843138%,87.843138%);stop-opacity:1;"/>
</linearGradient>
</defs>
<g id="surface1">
<path style=" stroke:none;fill-rule:nonzero;fill:url(#linear0);" d="M 11.90625 55.871094 L 51.597656 55.871094 L 51.597656 58.8125 L 11.90625 58.8125 Z M 11.90625 55.871094 "/>
<path style=" stroke:none;fill-rule:nonzero;fill:url(#radial0);" d="M 51.597656 56.066406 L 56.890625 56.066406 L 56.890625 53.421875 L 51.597656 53.421875 Z M 51.597656 56.066406 "/>
<path style=" stroke:none;fill-rule:nonzero;fill:url(#radial1);" d="M 11.90625 56.066406 L 6.613281 56.066406 L 6.613281 58.714844 L 11.90625 58.714844 Z M 11.90625 56.066406 "/>
<path style=" stroke:none;fill-rule:nonzero;fill:url(#radial2);" d="M 11.90625 56.066406 L 6.613281 56.066406 L 6.613281 53.421875 L 11.90625 53.421875 Z M 11.90625 56.066406 "/>
<path style=" stroke:none;fill-rule:nonzero;fill:url(#radial3);" d="M 51.597656 56.066406 L 56.890625 56.066406 L 56.890625 58.714844 L 51.597656 58.714844 Z M 51.597656 56.066406 "/>
<path style=" stroke:none;fill-rule:nonzero;fill:url(#linear1);" d="M 9.261719 5.792969 L 54.246094 5.792969 C 55.707031 5.792969 56.890625 6.976562 56.890625 8.4375 L 56.890625 53.421875 C 56.890625 54.882812 55.707031 56.066406 54.246094 56.066406 L 9.261719 56.066406 C 7.800781 56.066406 6.613281 54.882812 6.613281 53.421875 L 6.613281 8.4375 C 6.613281 6.976562 7.800781 5.792969 9.261719 5.792969 Z M 9.261719 5.792969 "/>
<path style=" stroke:none;fill-rule:nonzero;fill:rgb(90.196079%,90.196079%,90.196079%);fill-opacity:0.392157;" d="M 9.261719 5.792969 C 7.796875 5.792969 6.613281 6.972656 6.613281 8.4375 L 6.613281 8.769531 C 6.613281 7.304688 7.796875 6.121094 9.261719 6.121094 L 54.246094 6.121094 C 55.710938 6.121094 56.890625 7.304688 56.890625 8.769531 L 56.890625 8.4375 C 56.890625 6.972656 55.710938 5.792969 54.246094 5.792969 Z M 9.261719 5.792969 "/>
<path style=" stroke:none;fill-rule:nonzero;fill:rgb(0%,0%,0%);fill-opacity:0.196078;" d="M 9.261719 56.066406 C 7.796875 56.066406 6.613281 54.886719 6.613281 53.421875 L 6.613281 53.089844 C 6.613281 54.558594 7.796875 55.738281 9.261719 55.738281 L 54.246094 55.738281 C 55.710938 55.738281 56.890625 54.558594 56.890625 53.089844 L 56.890625 53.421875 C 56.890625 54.886719 55.710938 56.066406 54.246094 56.066406 Z M 9.261719 56.066406 "/>
<path style="fill:none;stroke-width:3;stroke-linecap:round;stroke-linejoin:miter;stroke:rgb(12.941177%,12.941177%,12.941177%);stroke-opacity:1;stroke-miterlimit:4;" d="M 74.086675 -168.660675 L 433.927312 -168.660675 C 445.613696 -168.660675 455.081542 -159.192829 455.081542 -147.506445 L 455.081542 212.334192 C 455.081542 224.020576 445.613696 233.488421 433.927312 233.488421 L 74.086675 233.488421 C 62.400291 233.488421 52.901198 224.020576 52.901198 212.334192 L 52.901198 -147.506445 C 52.901198 -159.192829 62.400291 -168.660675 74.086675 -168.660675 Z M 74.086675 -168.660675 " transform="matrix(0.125012,0,0,0.125012,0,26.877566)"/>
<path style=" stroke:none;fill-rule:nonzero;fill:url(#linear2);" d="M 31.753906 13.734375 C 31.359375 13.734375 30.988281 13.90625 30.738281 14.207031 L 17.507812 30.085938 C 17.097656 30.574219 17.097656 31.285156 17.507812 31.777344 L 30.738281 47.652344 C 30.988281 47.953125 31.359375 48.128906 31.753906 48.128906 L 39.691406 48.128906 C 40.8125 48.128906 41.421875 46.820312 40.707031 45.960938 L 29.5625 32.589844 L 23.484375 36.554688 L 28.199219 30.953125 L 28.179688 30.929688 L 40.707031 15.898438 C 41.421875 15.039062 40.8125 13.734375 39.691406 13.734375 Z M 31.753906 13.734375 "/>
<path style=" stroke:none;fill-rule:nonzero;fill:rgb(100%,100%,100%);fill-opacity:1;" d="M 31.753906 13.734375 C 31.359375 13.734375 30.988281 13.90625 30.738281 14.207031 L 17.507812 30.085938 C 17.246094 30.398438 17.152344 30.800781 17.226562 31.175781 C 17.265625 30.960938 17.359375 30.757812 17.507812 30.578125 L 30.738281 14.703125 C 30.988281 14.402344 31.359375 14.226562 31.753906 14.226562 L 39.691406 14.226562 C 40.382812 14.226562 40.878906 14.722656 40.992188 15.308594 C 41.140625 14.542969 40.574219 13.734375 39.691406 13.734375 Z M 29.5625 32.589844 L 24.40625 35.949219 L 23.484375 37.046875 L 29.5625 33.082031 L 40.707031 46.453125 C 40.859375 46.636719 40.949219 46.839844 40.992188 47.046875 C 41.058594 46.683594 40.980469 46.289062 40.707031 45.960938 Z M 29.5625 32.589844 "/>
<path style=" stroke:none;fill-rule:nonzero;fill:rgb(0%,0%,0%);fill-opacity:0.235294;" d="M 40.96875 15.5625 C 40.917969 15.734375 40.832031 15.902344 40.707031 16.054688 L 28.179688 31.085938 L 28.199219 31.109375 L 23.484375 36.707031 L 24.78125 35.859375 L 28.199219 31.804688 L 28.179688 31.78125 L 40.707031 16.75 C 41.007812 16.386719 41.074219 15.949219 40.96875 15.5625 Z M 17.25 31.433594 C 17.136719 31.839844 17.222656 32.285156 17.507812 32.625 L 30.738281 48.503906 C 30.988281 48.804688 31.359375 48.976562 31.753906 48.976562 L 39.691406 48.976562 C 40.613281 48.976562 41.1875 48.09375 40.964844 47.300781 C 40.820312 47.839844 40.339844 48.28125 39.691406 48.28125 L 31.753906 48.28125 C 31.359375 48.28125 30.988281 48.109375 30.738281 47.808594 L 17.507812 31.929688 C 17.382812 31.78125 17.296875 31.609375 17.25 31.433594 Z M 17.25 31.433594 "/>
<path style="fill:none;stroke-width:11.338583;stroke-linecap:round;stroke-linejoin:round;stroke:rgb(12.941177%,12.941177%,12.941177%);stroke-opacity:1;stroke-miterlimit:4;" d="M 960.026483 415.235959 C 948.098487 415.235959 936.879086 420.432314 929.320752 429.525934 L 529.319559 909.598225 C 516.919168 924.360595 516.919168 945.854607 529.319559 960.735077 L 929.320752 1440.689268 C 936.879086 1449.782889 948.098487 1455.097342 960.026483 1455.097342 L 1200.003579 1455.097342 C 1233.897982 1455.097342 1252.32142 1415.534189 1230.709309 1389.552417 L 893.772964 985.299661 L 710.010975 1105.17011 L 852.556425 935.816195 L 851.96593 935.107601 L 1230.709309 480.662786 C 1252.32142 454.681013 1233.897982 415.235959 1200.003579 415.235959 Z M 960.026483 415.235959 " transform="matrix(0.0330761,0,0,0.0330761,0,0)"/>
</g>
</svg>
